public/solo-logo-black.svg

<svg width="534" height="160" viewBox="0 0 534 160" fill="none" xmlns="http://www.w3.org/2000/svg">
<path d="M205.544 116.792C186.941 116.792 173.288 113.677 164.584 107.448C155.88 101.219 151.528 92.8133 151.528 82.232V80.696H179.688V81.592C179.688 86.1147 181.651 89.656 185.576 92.216C189.587 94.776 196.243 96.056 205.544 96.056C212.115 96.056 217.277 95.672 221.032 94.904C224.872 94.0507 227.475 92.984 228.84 91.704C230.291 90.3387 231.016 88.8027 231.016 87.096C231.016 84.4507 229.736 82.5307 227.176 81.336C224.701 80.056 221.544 79.2027 217.704 78.776C213.949 78.3493 208.787 77.9653 202.216 77.624C191.891 77.1973 183.357 76.4293 176.616 75.32C169.96 74.2107 164.2 71.8213 159.336 68.152C154.557 64.4827 152.168 58.936 152.168 51.512C152.168 43.064 156.264 36.3227 164.456 31.288C172.733 26.168 186.344 23.608 205.288 23.608C217.576 23.608 227.645 25.1013 235.496 28.088C243.432 30.9893 249.235 34.9147 252.904 39.864C256.659 44.728 258.536 50.3173 258.536 56.632V57.784H230.376V56.632C230.376 54.4987 229.523 52.4933 227.816 50.616C226.195 48.7387 223.507 47.2453 219.752 46.136C215.997 44.9413 211.176 44.344 205.288 44.344C195.816 44.344 189.288 45.112 185.704 46.648C182.12 48.184 180.328 50.232 180.328 52.792C180.328 54.9253 181.437 56.504 183.656 57.528C185.96 58.552 188.819 59.2347 192.232 59.576C195.645 59.9173 200.552 60.216 206.952 60.472C217.448 60.728 226.195 61.368 233.192 62.392C240.189 63.416 246.248 65.848 251.368 69.688C256.573 73.528 259.176 79.3307 259.176 87.096C259.176 95.9707 254.909 103.139 246.376 108.6C237.928 114.061 224.317 116.792 205.544 116.792ZM315.688 116.792C305.789 116.792 297.341 115.256 290.344 112.184C283.432 109.112 278.227 105.016 274.728 99.896C271.229 94.6907 269.48 88.888 269.48 82.488C269.48 76.088 271.229 70.2853 274.728 65.08C278.227 59.8747 283.432 55.7787 290.344 52.792C297.341 49.72 305.789 48.184 315.688 48.184C325.587 48.184 333.992 49.72 340.904 52.792C347.816 55.7787 353.021 59.8747 356.52 65.08C360.104 70.2853 361.896 76.088 361.896 82.488C361.896 88.888 360.104 94.6907 356.52 99.896C353.021 105.016 347.816 109.112 340.904 112.184C333.992 115.256 325.587 116.792 315.688 116.792ZM315.688 97.72C320.381 97.72 324.349 97.0373 327.592 95.672C330.92 94.3067 333.395 92.472 335.016 90.168C336.723 87.864 337.576 85.304 337.576 82.488C337.576 79.672 336.723 77.112 335.016 74.808C333.395 72.4187 330.92 70.5413 327.592 69.176C324.349 67.8107 320.381 67.128 315.688 67.128C310.909 67.128 306.899 67.8107 303.656 69.176C300.413 70.5413 297.939 72.4187 296.232 74.808C294.611 77.112 293.8 79.672 293.8 82.488C293.8 85.304 294.611 87.864 296.232 90.168C297.939 92.472 300.413 94.3067 303.656 95.672C306.899 97.0373 310.909 97.72 315.688 97.72ZM389.026 51.512C389.026 49.0373 388.471 47.288 387.362 46.264C386.338 45.24 384.418 44.728 381.602 44.728C380.066 44.728 378.701 44.8987 377.506 45.24C376.397 45.5813 375.245 46.0933 374.05 46.776V26.68C376.269 25.5707 378.743 24.8027 381.474 24.376C384.29 23.864 387.319 23.608 390.562 23.608C396.45 23.608 401.015 24.248 404.258 25.528C407.586 26.808 409.933 28.7707 411.298 31.416C412.749 34.0613 413.474 37.688 413.474 42.296V111.672H389.026V51.512ZM364.194 115V95.032H435.106V115H364.194ZM482.438 116.792C472.539 116.792 464.091 115.256 457.094 112.184C450.182 109.112 444.977 105.016 441.478 99.896C437.979 94.6907 436.23 88.888 436.23 82.488C436.23 76.088 437.979 70.2853 441.478 65.08C444.977 59.8747 450.182 55.7787 457.094 52.792C464.091 49.72 472.539 48.184 482.438 48.184C492.337 48.184 500.742 49.72 507.654 52.792C514.566 55.7787 519.771 59.8747 523.27 65.08C526.854 70.2853 528.646 76.088 528.646 82.488C528.646 88.888 526.854 94.6907 523.27 99.896C519.771 105.016 514.566 109.112 507.654 112.184C500.742 115.256 492.337 116.792 482.438 116.792ZM482.438 97.72C487.131 97.72 491.099 97.0373 494.342 95.672C497.67 94.3067 500.145 92.472 501.766 90.168C503.473 87.864 504.326 85.304 504.326 82.488C504.326 79.672 503.473 77.112 501.766 74.808C500.145 72.4187 497.67 70.5413 494.342 69.176C491.099 67.8107 487.131 67.128 482.438 67.128C477.659 67.128 473.649 67.8107 470.406 69.176C467.163 70.5413 464.689 72.4187 462.982 74.808C461.361 77.112 460.55 79.672 460.55 82.488C460.55 85.304 461.361 87.864 462.982 90.168C464.689 92.472 467.163 94.3067 470.406 95.672C473.649 97.0373 477.659 97.72 482.438 97.72Z" fill="black"/>
<circle cx="28.829" cy="28.594" r="27.7266" transform="rotate(6.2821 28.829 28.594)" fill="black"/>
<circle cx="106.293" cy="69.5698" r="19.8047" transform="rotate(6.2821 106.293 69.5698)" fill="black"/>
<circle cx="19.8562" cy="115.273" r="15.8438" transform="rotate(6.2821 19.8562 115.273)" fill="black"/>
<rect x="22.4047" y="40.4107" width="10.1853" height="72.4286" transform="rotate(6.2821 22.4047 40.4107)" fill="black"/>
<rect x="93.3889" y="71.0164" width="10.1853" height="81.2662" transform="rotate(61.2593 93.3889 71.0164)" fill="black"/>
</svg>

<svg width="534" height="160" viewBox="0 0 534 160" fill="none" xmlns="http://www.w3.org/2000/svg"><path d="M205.544 116.792q-27.904 0-40.96-9.344t-13.056-25.216v-1.536h28.16v.896q0 6.784 5.888 10.624 6.017 3.84 19.968 3.84 9.856 0 15.488-1.152 5.76-1.28 7.808-3.2 2.176-2.047 2.176-4.608 0-3.968-3.84-5.76-3.712-1.92-9.472-2.56-5.632-.64-15.488-1.152-15.488-.64-25.6-2.304-9.984-1.665-17.28-7.168-7.168-5.505-7.168-16.64 0-12.672 12.288-20.224 12.416-7.68 40.832-7.68 18.432 0 30.208 4.48 11.904 4.352 17.408 11.776 5.632 7.296 5.632 16.768v1.152h-28.16v-1.152q0-3.2-2.56-6.016-2.431-2.815-8.064-4.48-5.632-1.792-14.464-1.792-14.208 0-19.584 2.304t-5.376 6.144q0 3.2 3.328 4.736 3.456 1.536 8.576 2.048t14.72.896q15.744.384 26.24 1.92t18.176 7.296q7.808 5.76 7.808 17.408 0 13.313-12.8 21.504-12.672 8.192-40.832 8.192m110.144 0q-14.848 0-25.344-4.608-10.368-4.608-15.616-12.288-5.248-7.808-5.248-17.408t5.248-17.408 15.616-12.288q10.496-4.608 25.344-4.608t25.216 4.608q10.368 4.48 15.616 12.288 5.376 7.808 5.376 17.408t-5.376 17.408q-5.248 7.68-15.616 12.288t-25.216 4.608m0-19.072q7.04 0 11.904-2.048 4.992-2.048 7.424-5.504 2.56-3.456 2.56-7.68t-2.56-7.68q-2.432-3.585-7.424-5.632-4.865-2.048-11.904-2.048-7.168 0-12.032 2.048t-7.424 5.632q-2.432 3.456-2.432 7.68t2.432 7.68q2.56 3.456 7.424 5.504t12.032 2.048m73.338-46.208q0-3.712-1.664-5.248-1.536-1.536-5.76-1.536-2.304 0-4.096.512-1.663.511-3.456 1.536V26.68q3.328-1.664 7.424-2.304 4.224-.768 9.088-.768 8.832 0 13.696 1.92 4.992 1.92 7.04 5.888 2.176 3.968 2.176 10.88v69.376h-24.448zM364.194 115V95.032h70.912V115zm118.244 1.792q-14.848 0-25.344-4.608-10.368-4.608-15.616-12.288-5.248-7.808-5.248-17.408t5.248-17.408 15.616-12.288q10.496-4.608 25.344-4.608t25.216 4.608q10.368 4.48 15.616 12.288 5.376 7.808 5.376 17.408t-5.376 17.408q-5.248 7.68-15.616 12.288t-25.216 4.608m0-19.072q7.04 0 11.904-2.048 4.992-2.048 7.424-5.504 2.56-3.456 2.56-7.68t-2.56-7.68q-2.432-3.585-7.424-5.632-4.864-2.048-11.904-2.048-7.168 0-12.032 2.048t-7.424 5.632q-2.432 3.456-2.432 7.68t2.432 7.68q2.56 3.456 7.424 5.504t12.032 2.048" fill="#000"/><circle cx="28.829" cy="28.594" r="27.727" transform="rotate(6.282 28.829 28.594)" fill="#000"/><circle cx="106.293" cy="69.57" r="19.805" transform="rotate(6.282 106.293 69.57)" fill="#000"/><circle cx="19.856" cy="115.273" r="15.844" transform="rotate(6.282 19.856 115.273)" fill="#000"/><path fill="#000" d="m22.405 40.411 10.124 1.114-7.926 71.995-10.123-1.115z"/><path fill="#000" d="m93.389 71.016 4.897 8.93-71.255 39.076-4.897-8.93z"/></svg>
